svg/feedback_background.svg

<svg width="164" height="150" viewBox="0 0 164 150" fill="none" xmlns="http://www.w3.org/2000/svg">
<path fill-rule="evenodd" clip-rule="evenodd" d="M91.62 3.12697C106.282 3.93532 116.634 16.5831 128.314 25.4749C140.185 34.5131 155.857 41.0513 160.18 55.3233C164.518 69.6461 153.918 83.4684 150.275 97.9827C146.046 114.834 139.142 125.849 125.137 136.148C111.188 146.407 103.136 149.707 86.4995 144.885C73.0679 140.991 56.2813 133.851 44.1537 126.893C28.9726 118.182 14.9606 114.501 6.68569 99.0888C-1.69746 83.475 3.0077 62.7866 11.9876 47.5087C20.3267 33.3212 38.0313 29.3059 52.4136 21.2902C65.3095 14.1029 76.8749 2.31403 91.62 3.12697Z" fill="#FFE7E3"/>
</svg>

<svg width="164" height="150" viewBox="0 0 164 150" fill="none" xmlns="http://www.w3.org/2000/svg"><path fill-rule="evenodd" clip-rule="evenodd" d="M91.62 3.127c14.662.808 25.014 13.456 36.694 22.348 11.871 9.038 27.543 15.576 31.866 29.848 4.338 14.323-6.262 28.145-9.905 42.66-4.229 16.851-11.133 27.866-25.138 38.165-13.949 10.259-22.001 13.559-38.638 8.737-13.431-3.894-30.218-11.034-42.345-17.992-15.181-8.711-29.193-12.392-37.468-27.804-8.383-15.614-3.678-36.302 5.302-51.58C20.327 33.32 38.03 29.306 52.414 21.29 65.309 14.103 76.874 2.314 91.62 3.127z" fill="#FFE7E3"/></svg>
